packages/sources/assets/src/assets/post-finance.svg

<svg width="58" height="40" viewBox="0 0 58 40" fill="none" xmlns="http://www.w3.org/2000/svg">
<rect x="0.5" y="0.5" width="57" height="39" rx="3.5" fill="#FFCC00" stroke="#F3F3F3"/>
<path d="M57 36.5137V3.69821C57 2.55925 55.7337 1 54.6328 1H33.0162C31.6151 9.80109 28.6128 20.1553 22.9084 28.5422C19.806 33.0981 16.2032 36.515 12 39H13.9015C17.4042 36.6185 20.6066 33.4087 23.4088 29.3706C28.913 21.3978 31.9153 11.7684 33.5166 3.17439C32.3156 11.4578 29.6136 20.8801 24.5096 29.0599C22.0077 33.0981 19.1055 36.4114 15.8029 39H17.7044C20.5065 36.515 22.9084 33.5123 25.1101 29.9918C28.5127 24.5041 30.9146 18.4986 32.5158 12.5967C31.1147 18.2916 29.1132 24.0899 26.1109 29.3706C24.0092 33.0981 21.5073 36.3079 18.8052 39H20.8068C23.1086 36.515 25.2102 33.6158 27.0116 30.406C28.5127 27.8174 29.8137 25.0218 30.9146 21.9155C30.0139 24.4005 28.913 26.9891 27.7121 29.3706C25.9107 32.891 23.6831 36.2044 21.1812 39H23.4088C25.4103 36.515 27.3118 33.6158 28.8129 30.6131C27.3118 33.6158 25.5182 36.515 23.6167 39H54.6328C55.7337 39 57 37.6527 57 36.5137Z" fill="#FFE57F"/>
<path d="M46.4453 11.5012L46.9654 9.0244L4.52057 9.0244L4 11.5012L46.4453 11.5012Z" fill="white"/>
<path d="M51.5576 5.64868C51.5576 5.64868 52.1268 3.02464 52.1347 3.00002H48.5179C48.5179 3.01661 47.7701 6.4823 47.7701 6.49875C47.778 6.49875 48.6969 6.49875 48.6969 6.49875C48.7047 6.49875 49.2657 3.88285 49.2657 3.88285L51.0211 3.88285C51.0211 3.88285 50.4684 6.50678 50.4523 6.52338C50.4684 6.52338 53.1262 6.52338 53.1262 6.52338L52.7768 8.14168C52.7768 8.14168 50.1273 8.14168 50.1187 8.14168C50.1187 8.15814 49.5824 10.6103 49.5824 10.6103C49.5824 10.6103 47.5911 10.6103 47.575 10.6103C47.575 10.6184 47.3961 11.4931 47.3882 11.5012H50.3463C50.3463 11.4931 50.875 9.0244 50.875 9.0244C50.875 9.0244 53.5164 9.0244 53.5328 9.0244C53.5328 9.01623 54.2319 5.66485 54.2319 5.64868H51.5576Z" fill="#ED1C24"/>
<path fill-rule="evenodd" clip-rule="evenodd" d="M11.6646 9.85022C12.9408 9.85022 13.8022 8.91818 13.9973 7.70034C14.2006 6.48224 13.5261 5.5502 12.2498 5.5502C10.9738 5.5502 10.1122 6.48224 9.91714 7.70034C9.714 8.91818 10.3886 9.85022 11.6646 9.85022ZM46.0451 8.70582L45.8336 9.67864C45.5247 9.77638 45.151 9.85022 44.6795 9.85022C43.5173 9.85022 42.7695 9.18789 42.7695 8.06008C42.7695 6.7441 43.6472 5.5502 45.0941 5.5502C46.2076 5.5502 46.7278 6.28608 46.7278 7.18539C46.7278 7.47958 46.6708 7.79808 46.5735 8.11704H43.8913C43.9157 8.7466 44.3706 8.92617 44.8911 8.92617C45.3378 8.92617 45.6875 8.82818 46.0451 8.70582ZM45.655 7.11998C45.655 6.68672 45.3947 6.42529 45.0128 6.42529C44.5249 6.42529 44.1594 6.78489 43.9887 7.33234H45.6389L45.6417 7.30617V7.30614C45.6486 7.24295 45.655 7.18456 45.655 7.11998ZM41.4204 8.85277C40.892 8.85277 40.5344 8.62399 40.5344 7.96191C40.5344 7.18539 41.022 6.53948 41.7944 6.53948C42.0382 6.53948 42.3145 6.61303 42.5909 6.71948L42.786 5.78758C42.4688 5.67325 42.0947 5.59138 41.721 5.59138C40.4449 5.59138 39.3557 6.54765 39.3557 8.0193C39.3557 9.22893 40.0956 9.80086 41.1601 9.80086C41.5177 9.80086 41.8184 9.73563 42.0382 9.64588L42.2494 8.68922C42.0056 8.77922 41.7372 8.85277 41.4204 8.85277ZM36.2511 7.6593L35.8041 9.72746H34.6417L35.5115 5.67325H36.5923L36.4867 6.15529C36.877 5.73834 37.332 5.5502 37.8036 5.5502C38.657 5.5502 39.2014 6.17174 38.9494 7.35693L38.4375 9.72746H37.2751L37.7628 7.41417C37.8687 6.94844 37.8036 6.53948 37.259 6.53948C36.8365 6.53948 36.4298 6.82564 36.2511 7.6593ZM31.6265 8.55858C31.6265 8.15008 31.9841 7.92084 32.5772 7.92084C32.6913 7.92084 32.9429 7.9293 33.1708 7.96191L33.1218 8.19084C32.9834 8.67277 32.5937 9.00015 32.1306 9.00015C31.7971 9.00015 31.6265 8.8366 31.6265 8.55858ZM31.4884 5.75479C31.6671 5.69758 32.2117 5.57479 32.7482 5.57479C34.0892 5.57479 34.4709 6.18794 34.4709 6.88303C34.4709 7.0546 34.4548 7.23417 34.4143 7.40618L33.9102 9.72746H32.878L32.9675 9.30248C32.6913 9.62943 32.2686 9.82563 31.7727 9.82563C31.0738 9.82563 30.5376 9.40864 30.5376 8.71399C30.5376 7.65112 31.4639 7.20184 32.6178 7.20184C32.7482 7.20184 33.0244 7.22618 33.3169 7.2588L33.3334 7.17693C33.3495 7.11184 33.3495 7.04618 33.3495 6.98919C33.3495 6.67027 33.13 6.48224 32.5206 6.48224C32.0652 6.48224 31.553 6.62149 31.2933 6.69489L31.4884 5.75479ZM27.1156 9.72746L27.5625 7.6593C27.7415 6.82564 28.1475 6.53948 28.5707 6.53948C29.1153 6.53948 29.1801 6.94844 29.0747 7.41417L28.5867 9.72746H29.749L30.2607 7.35693C30.5128 6.17174 29.9685 5.5502 29.1153 5.5502C28.6432 5.5502 28.1881 5.73834 27.7981 6.15529L27.9037 5.67325H26.8228L25.9531 9.72746L27.1156 9.72746ZM25.6363 5.20708C25.2787 5.20708 25.0103 4.92088 25.035 4.55318C25.0592 4.18544 25.3437 3.89924 25.7418 3.89924C26.0995 3.89924 26.3677 4.18544 26.3431 4.55318C26.319 4.92088 26.0345 5.20708 25.6363 5.20708ZM24.8721 5.67325L24.0025 9.72746H25.1568L26.0265 5.67325H24.8721ZM22.0434 7.61034L21.5883 9.72746H20.402L21.5563 4.23422L24.6041 4.23422L24.3766 5.27246L22.5316 5.27246L22.2631 6.57224H24.0109L23.7994 7.61034H22.0434ZM20.4424 6.5641L20.6295 5.67325H19.3862L19.6297 4.54515L18.4186 4.81472L17.6627 8.28044C17.4517 9.26169 17.9878 9.80086 18.963 9.80086C19.1667 9.80086 19.5077 9.76022 19.7518 9.67864L19.9469 8.78739C19.7518 8.8366 19.5077 8.88553 19.2967 8.88553C18.963 8.88553 18.7274 8.77119 18.809 8.36227L19.1911 6.5641H20.4424ZM15.3059 8.91818C15.6391 8.91818 16.0372 8.86119 16.0372 8.53399C16.0372 8.30654 15.7913 8.20405 15.4979 8.08174C15.0639 7.90081 14.5258 7.67653 14.5258 6.94027C14.5258 6.09834 15.2085 5.59138 16.338 5.59138C16.712 5.59138 17.1266 5.64862 17.476 5.7468L17.2809 6.67027L17.2778 6.66936C17.1043 6.61969 16.5957 6.4741 16.2322 6.4741C15.8505 6.4741 15.6067 6.5641 15.6067 6.81765C15.6067 7.04331 15.8488 7.14331 16.1392 7.26327C16.5745 7.4431 17.1185 7.66779 17.1185 8.42779C17.1185 9.40864 16.2728 9.80086 15.2327 9.80086C14.7939 9.80086 14.3306 9.72746 13.9647 9.63746L14.1602 8.72198C14.4119 8.80399 14.8831 8.91818 15.3059 8.91818ZM11.1118 7.70034C10.9414 8.54227 11.307 8.91015 11.7706 8.91015C12.2336 8.91015 12.6317 8.53399 12.8025 7.70034C12.9815 6.86643 12.6157 6.4907 12.1523 6.4907C11.689 6.4907 11.2824 6.85844 11.1118 7.70034ZM6.86923 8.05162H7.38143C9.01513 8.05162 9.92556 7.24263 9.92556 5.89375C9.92556 4.88827 9.21788 4.23422 8.00699 4.23422H6.49564L5.34135 9.72746H6.51171L6.86923 8.05162ZM7.45442 5.23984L7.07241 7.04618H7.56041C8.32414 7.04618 8.73844 6.63765 8.73844 5.97558C8.73844 5.46063 8.47863 5.23984 7.94213 5.23984H7.45442Z" fill="black"/>
<rect x="4.31999" y="16" width="11.0951" height="8.45341" rx="1.17153" fill="#DBB931"/>
<path fill-rule="evenodd" clip-rule="evenodd" d="M15.4151 17.1715C15.4151 16.5245 14.8906 16 14.2436 16H5.49152C4.8445 16 4.31999 16.5245 4.31999 17.1715V23.2819C4.31999 23.9289 4.8445 24.4534 5.49152 24.4534H14.2436C14.8906 24.4534 15.4151 23.9289 15.4151 23.2819V17.1715ZM5.49152 16.1895H14.2436L14.3013 16.1912C14.8168 16.221 15.2256 16.6485 15.2256 17.1715V23.2819L15.2239 23.3396C15.194 23.8551 14.7665 24.2639 14.2436 24.2639H5.49152L5.43382 24.2622C4.91833 24.2324 4.5095 23.8049 4.5095 23.2819V17.1715L4.51117 17.1138C4.54104 16.5983 4.96854 16.1895 5.49152 16.1895Z" fill="#646464"/>
<path fill-rule="evenodd" clip-rule="evenodd" d="M9.86754 23.6565C10.0008 23.6565 10.1087 23.548 10.1087 23.414C10.1087 23.2801 10.0008 23.1715 9.86754 23.1715C9.73433 23.1715 9.62634 23.2801 9.62634 23.414C9.62634 23.548 9.73433 23.6565 9.86754 23.6565Z" fill="#646464"/>
<path d="M8.09302 18.9527V19.1422H4.39752V18.9527H8.09302Z" fill="#646464"/>
<path d="M15.2859 21.4299V21.6194H11.5559V21.4299H15.2859Z" fill="#646464"/>
<path d="M15.2859 18.9527V19.1422H11.6248V18.9527H15.2859Z" fill="#646464"/>
<path d="M9.91658 16.2919C10.8342 16.6189 11.4258 17.5006 11.6953 18.9231L11.7182 19.05L11.709 19.1096C11.4235 19.6624 11.3911 20.4149 11.6168 21.3683L11.6477 21.4938L11.6481 21.5393C11.3426 22.8192 10.7974 23.6798 10.0097 24.1136L9.92733 24.157L9.86366 24.1647C9.39839 24.0584 8.96488 23.6214 8.54541 22.9078C8.51889 22.8627 8.53396 22.8046 8.57908 22.7781C8.62419 22.7516 8.68227 22.7666 8.70878 22.8117C9.08616 23.4538 9.46851 23.8511 9.85121 23.9655L9.87295 23.9712L9.919 23.9472C10.6285 23.556 11.1339 22.7828 11.4325 21.6212L11.4582 21.5172L11.4332 21.4153C11.2069 20.4613 11.2288 19.6887 11.5034 19.0986L11.5258 19.0522L11.5088 18.957C11.2586 17.6369 10.7307 16.8218 9.92893 16.4992L9.88575 16.4826L9.84676 16.4985C9.11462 16.8116 8.56978 17.6287 8.21837 18.9587L8.19167 19.0618L8.21995 19.1429C8.50913 20.0109 8.4816 20.7909 8.1349 21.4776L8.08991 21.5629C8.07658 21.5871 8.05355 21.604 8.02718 21.6098L8.00687 21.612H4.39752C4.34519 21.612 4.30276 21.5696 4.30276 21.5173C4.30276 21.4724 4.33393 21.4348 4.37579 21.425L4.39752 21.4225L7.94975 21.4224L7.96736 21.3889C8.28816 20.7511 8.31356 20.0251 8.0411 19.2057L8.00388 19.0983L8.00106 19.0433C8.36401 17.5835 8.95264 16.6737 9.77368 16.3236L9.85134 16.2925L9.91658 16.2919Z" fill="#646464"/>
<rect x="4" y="33" width="24" height="1" fill="black"/>
<rect x="4" y="30" width="12" height="1" fill="black"/>
</svg>

<svg width="58" height="40" fill="none" xmlns="http://www.w3.org/2000/svg"><rect x=".5" y=".5" width="57" height="39" rx="3.5" fill="#FC0" stroke="#F3F3F3"/><path d="M57 36.514V3.698C57 2.56 55.734 1 54.633 1H33.016c-1.4 8.801-4.403 19.155-10.108 27.542C19.806 33.098 16.203 36.515 12 39h1.902c3.502-2.382 6.705-5.591 9.507-9.63 5.504-7.972 8.506-17.602 10.108-26.196-1.201 8.284-3.903 17.706-9.007 25.886-2.502 4.038-5.405 7.351-8.707 9.94h1.901c2.802-2.485 5.204-5.488 7.406-9.008 3.403-5.488 5.805-11.493 7.406-17.395-1.401 5.695-3.403 11.493-6.405 16.774A44.278 44.278 0 0 1 18.805 39h2.002c2.302-2.485 4.403-5.384 6.205-8.594a50.277 50.277 0 0 0 3.903-8.49 69.356 69.356 0 0 1-3.203 7.455c-1.801 3.52-4.029 6.833-6.53 9.629h2.227a47.455 47.455 0 0 0 5.404-8.387c-1.501 3.003-3.295 5.902-5.196 8.387h31.016c1.1 0 2.367-1.347 2.367-2.486Z" fill="#FFE57F"/><path d="m46.445 11.501.52-2.477H4.521L4 11.501h42.445" fill="#fff"/><path d="M51.558 5.649s.569-2.624.577-2.649h-3.617c0 .017-.748 3.482-.748 3.499h.927c.008 0 .569-2.616.569-2.616h1.755s-.553 2.624-.569 2.64h2.674l-.35 1.619H50.12c0 .016-.537 2.468-.537 2.468h-2.007c0 .008-.179.883-.187.891h2.958c0-.008.529-2.477.529-2.477h2.658c0-.008.699-3.36.699-3.375h-2.674" fill="#ED1C24"/><path fill-rule="evenodd" clip-rule="evenodd" d="M11.665 9.85c1.276 0 2.137-.932 2.332-2.15.204-1.218-.47-2.15-1.747-2.15-1.276 0-2.138.932-2.333 2.15-.203 1.218.472 2.15 1.748 2.15Zm34.38-1.144-.211.973a3.753 3.753 0 0 1-1.155.171c-1.162 0-1.91-.662-1.91-1.79 0-1.316.878-2.51 2.325-2.51 1.114 0 1.634.736 1.634 1.635 0 .295-.057.613-.154.932H43.89c.025.63.48.81 1 .81.447 0 .797-.099 1.154-.221Zm-.39-1.586c0-.433-.26-.695-.642-.695-.488 0-.854.36-1.024.907h1.65l.003-.026c.007-.063.013-.121.013-.186ZM41.42 8.853c-.528 0-.886-.229-.886-.891 0-.777.488-1.423 1.26-1.423.244 0 .52.074.797.18l.195-.931a3.208 3.208 0 0 0-1.065-.197c-1.276 0-2.365.957-2.365 2.428 0 1.21.74 1.782 1.804 1.782.358 0 .658-.065.878-.155l.211-.957c-.243.09-.512.164-.829.164Zm-5.169-1.194-.447 2.068h-1.162l.87-4.054h1.08l-.105.482c.39-.417.845-.605 1.317-.605.853 0 1.397.622 1.145 1.807l-.511 2.37h-1.163l.488-2.313c.106-.466.04-.875-.504-.875-.422 0-.83.287-1.008 1.12Zm-4.624.9c0-.409.357-.638.95-.638.114 0 .366.008.594.04l-.05.23c-.138.482-.527.81-.99.81-.334 0-.505-.164-.505-.442Zm-.139-2.804a4.87 4.87 0 0 1 1.26-.18c1.341 0 1.723.613 1.723 1.308 0 .172-.016.351-.057.523l-.504 2.321h-1.032l.09-.425c-.277.327-.7.524-1.195.524-.7 0-1.235-.417-1.235-1.112 0-1.063.926-1.512 2.08-1.512.13 0 .406.024.699.057l.016-.082c.017-.065.017-.13.017-.188 0-.319-.22-.507-.83-.507-.455 0-.967.14-1.227.213l.195-.94Zm-4.372 3.972.447-2.068c.178-.833.585-1.12 1.008-1.12.544 0 .61.41.504.875l-.488 2.313h1.162l.512-2.37c.252-1.185-.293-1.807-1.146-1.807-.472 0-.927.188-1.317.605l.106-.482h-1.081l-.87 4.054h1.163Zm-1.48-4.52a.595.595 0 0 1-.601-.654.688.688 0 0 1 .707-.654c.357 0 .626.286.601.654a.688.688 0 0 1-.707.654Zm-.764.466-.87 4.054h1.155l.87-4.054h-1.155ZM22.043 7.61l-.455 2.117h-1.186l1.154-5.493h3.048l-.227 1.038h-1.845l-.269 1.3h1.748l-.212 1.038h-1.756Zm-1.6-1.046.186-.89h-1.243l.244-1.129-1.211.27-.756 3.465c-.211.982.325 1.52 1.3 1.52.204 0 .545-.04.789-.121l.195-.892c-.195.05-.44.099-.65.099-.334 0-.57-.115-.488-.524l.382-1.798h1.251Zm-5.137 2.354c.333 0 .731-.057.731-.384 0-.227-.246-.33-.54-.452-.433-.181-.971-.405-.971-1.142 0-.842.683-1.349 1.812-1.349.374 0 .789.058 1.138.156l-.195.923h-.003c-.174-.05-.682-.196-1.046-.196-.381 0-.625.09-.625.344 0 .225.242.325.532.445.436.18.98.405.98 1.165 0 .98-.846 1.373-1.886 1.373a5.53 5.53 0 0 1-1.268-.164l.195-.915a4.09 4.09 0 0 0 1.146.196ZM11.112 7.7c-.17.842.195 1.21.659 1.21.463 0 .86-.376 1.031-1.21.18-.834-.186-1.21-.65-1.21-.463 0-.87.368-1.04 1.21Zm-4.243.352h.512c1.634 0 2.545-.81 2.545-2.158 0-1.006-.708-1.66-1.919-1.66H6.496L5.34 9.727h1.17l.358-1.675Zm.585-2.812-.382 1.806h.488c.764 0 1.178-.408 1.178-1.07 0-.515-.26-.736-.796-.736h-.488Z" fill="#000"/><rect x="4.32" y="16" width="11.095" height="8.453" rx="1.172" fill="#DBB931"/><path fill-rule="evenodd" clip-rule="evenodd" d="M15.415 17.172A1.17 1.17 0 0 0 14.244 16H5.492c-.647 0-1.172.524-1.172 1.172v6.11a1.17 1.17 0 0 0 1.172 1.171h8.752a1.17 1.17 0 0 0 1.171-1.171v-6.11Zm-9.923-.983h8.752l.057.002c.516.03.925.457.925.98v6.11l-.002.059a.982.982 0 0 1-.98.924H5.492l-.058-.002a.982.982 0 0 1-.925-.98v-6.11l.002-.058a.982.982 0 0 1 .98-.925Z" fill="#646464"/><path fill-rule="evenodd" clip-rule="evenodd" d="M9.868 23.657a.242.242 0 0 0 .24-.243.242.242 0 0 0-.24-.242.242.242 0 0 0-.242.242c0 .134.108.242.242.242Z" fill="#646464"/><path d="M8.093 18.953v.19H4.398v-.19h3.695Zm7.193 2.477v.19h-3.73v-.19h3.73Zm0-2.477v.19h-3.661v-.19h3.66Z" fill="#646464"/><path d="M9.917 16.292c.917.327 1.509 1.209 1.778 2.631l.023.127-.009.06c-.285.552-.318 1.305-.092 2.258l.03.126.001.045c-.305 1.28-.85 2.14-1.638 2.575l-.083.043-.063.008c-.466-.107-.9-.544-1.319-1.257a.095.095 0 0 1 .164-.096c.377.642.76 1.04 1.142 1.153l.022.006.046-.024c.71-.391 1.215-1.164 1.513-2.326l.026-.104-.025-.102c-.226-.954-.204-1.726.07-2.316l.023-.047-.017-.095c-.25-1.32-.778-2.135-1.58-2.458l-.043-.016-.04.015c-.731.314-1.276 1.13-1.628 2.46l-.026.104.028.08c.29.869.262 1.649-.085 2.336l-.045.085a.095.095 0 0 1-.063.047l-.02.002h-3.61a.095.095 0 0 1-.021-.187l.022-.003H7.95l.017-.033c.321-.638.347-1.364.074-2.183l-.037-.108L8 19.043c.363-1.46.952-2.37 1.773-2.72l.077-.03.066-.001Z" fill="#646464"/><path fill="#000" d="M4 33h24v1H4zm0-3h12v1H4z"/></svg>
